X:1
T:Nativitas gloriosae Virginis Mariae - Marenzio
T:#
%%score [ 1 2 3 4 ]
L:1/8
Q:1/4=200
M:none
K:F
V:1 treble nm="Soprano" snm="S"
V:2 treble nm="Alto" snm="A"
V:3 treble-8 nm="Tenor" snm="T"
V:4 bass nm="Bass" snm="B"
V:1
"^Nativitas gloriosae Virginis Mariae""^Luca Marenzio\n(1556-1599)" A16 | c12 c4 | c8 z4 c4 | %3
w: Na-|ti- vi-|tas glo-|
 d4 f8 e4 | d6 d2 c4 f4 | (e2 d2 d8 c2 B2 | c6 d2 e8) | f4 c4 A8- |[M:4/2] A4 A4 A8 | z16 | %10
w: ri- o- sae|Vir- gi- nis Ma-|ri\- * * * *||ae, na- ti\-|* vi- tas||
 z8 z4 d4 | e4 g8 f4 | e6 e2 (d6 e2 | f4) e8 d4- | (d2 c2 c6 =BA B2 c2 | d2 _B2 d8 ^c4) | d16 | %17
w: glo-|ri- o- sae|Vir- gi- nis *|* Ma- ri\-|||ae,|
 z4 f8 d4- | d4 d4 d8- | d8 z4 F4 | A4 c8 =B4 | c6 c2 c4 A4 | d8 e8 | z16 | z8 z4 g4 | %25
w: na- ti-|* vi- tas|* glo-|ri- o- sae|Vir- gi- nis Ma-|ri- ae||ex|
 g6 d2 g4 f4- | f2 e2 e4 z4 g4 | c6 A2 d4 c4- | c4 =B4 c8- | c8 z8 | z8 (c6 d2 | e2 c2 f8) e4 | %32
w: se- mi- ne A\-|* bra- hae, ex|se- mi- ne A\-|* bra- hae,||or\- *|* * * ta|
 z4 c4 c4 A4 | c8 F4 f4 | f4 c4 f8- | f8 d8- | d16 | z16 | z4 g6 g2 g4 | e8 d4 (g4- | %40
w: de tri- bu|Ju- da, de|tri- bu Ju\-|* da,|||cla- ra ex|stir- pe Da\-|
 g2 ^fe f4) g8 | z8 z4 d4- | d2 c2 c4 d8 | A16 | z4 d6 ^c2 c4 | d8 e8 | z4 d6 ^c2 c4 | %47
w: * * * * vid,|in\-|* cly- ta cun-|ctas,|in- cly- ta|cun- ctas,|in- cly- ta|
 d4 A4 A4 E4 | F8 E8 | z4 d6 ^c2 c4 | d4 A4 d4 e4 | f8 e8 | z4 d6 ^c2 c4 | (d6 e2 f4) e4 | %54
w: cun- ctas, cu- ius|vi- ta|in- cly- ta|cun- ctas, cu- ius|vi- ta|in- cly- ta|cun- * * ctas|
 z4[Q:1/4=197] A8[Q:1/4=193] (D2[Q:1/4=192] E2 | %55
w: il- lu- *|
[Q:1/4=190] F2[Q:1/4=189] G2[Q:1/4=187] A4)[Q:1/4=184] A4[Q:1/4=181] B4 | %56
w: * * * strat Ec-|
[Q:1/4=176] A12[Q:1/4=171] A4 |[Q:1/4=170] A16 |] %58
w: cle- si-|as.|
V:2
 z8 A8- | A8 F8- | F4 F4 F8 | z4 F4 A4 c4- | c4 B4 A6 A2 | G4 F4 E8 | E8 A8- | A8 F8- | %8
w: Na\-|* ti\-|* vi- tas|glo- ri- o\-|* sae Vir- gi-|nis Ma- ri-|ae, na\-|* ti\-|
[M:4/2] F4 F4 (F2 G2 A2 B2 | c6 BA G8 | A8) z8 | z8 z4 F4 | A4 c8 B4 | A6 A2 (G2 F2 E2 D2) | %14
w: * vi- tas * * *|||glo-|ri- o- sae|Vir- gi- nis * * *|
 E4 C4 (G6 A2 | _B2 G2 A6 GF E4) | (F6 G2 A8) | D16 | F12 F4 | F4 D4 F4 A4- | A4 G4 F6 F2 | %21
w: * Ma- ri\- *||ae, * *|na-|ti- vi-|tas glo- ri- o\-|* sae Vir- gi-|
 G4 A8 (c4- | c2 =BA B4) (c6 _BA | G8) z8 | z4 c4 c6 G2 | c4 B8 A4 | c4 G8 G4- | G2 E2 A4 A6 E2 | %28
w: nis Ma- ri\-|* * * * ae * *||ex se- mi-|ne A- bra|hae, ex se\-|* mi- ne A- bra-|
 G8 (C6 D2 | E2 C2 F8) E4 | z8 (E6 F2 | G2 E2 A4) G4 c4 | c4 A4 c8 | F8 z8 | (F6 G2 A2 F2 B4- | %35
w: hae, or\- *|* * * ta,|or\- *|* * * ta de|tri- bu Ju-|da,|or\- * * * *|
 B2 AG A4) B4 F4 | F4 D4 F8 | B,8 z8 | z8 z4 G4- | G2 G2 G4 B4 B4 | A8 G4 G4- | G4 D4 B4 A4 | %42
w: * * * * ta de|tri- bu Ju-|da,|cla\-|* ra ex stir- pe|Da- vid, cu\-|* ius vi- ta|
 z4 G6 F2 F4 | F8 E4 A4- | A2 G2 G4 A8 | (D2 E2 F2 D2 A8) | z4 A8 E4 | F8 E8 | z4 A8 E4 | F8 E8 | %50
w: in- cly- ta|cun- ctas in\-|* cly- ta cun-|ctas, * * * *|cu- ius|vi- ta,|cu- ius|vi- ta,|
 z4 D6 ^C2 C4 | D4 A,4 z4 A4- | A2 A2 F4 E8 | F4 (D8 ^C2 =B,2 | ^C8) (D2 E2 F2 G2 | A8) F8 | %56
w: in- cly- ta|cun- ctas, in\-|* cly- ta cun-|ctas il\- * *|* lu\- * * *|* strat|
 F4 F8 F4 | E16 |] %58
w: Ec- cle- si-|as.|
V:3
 z16 | z16 | z16 | z16 | z16 | z8 A8- | A8 c8- | c4 c4 c8 |[M:4/2][K:treble-8] z4 c4 d4 f4- | %9
w: |||||Na\-|* ti\-|* vi- tas|glo- ri- o\-|
 f4 e4 d6 d2 | c4 f4 (e2 d2 d4- | d2 ^c=B c4) d8 | z16 | c8 e4 g4- | g4 f4 e6 e2 | d4 f4 e8 | %16
w: * sae Vir- gi-|nis Ma- ri\- * *|* * * * ae,||glo- ri- o\-|* sae Vir- gi-|nis Ma- ri-|
 d4 d4 f8- | f4 f4 f8 | z8 z4 B4 | d4 B8 A4 | c6 c2 d8 | e4 (f6 ed e2 f2 | g8) c8 | z4 g4 g6 d2 | %24
w: ae, na- ti\-|* vi- tas|glo-|ri- o- sae|Vir- gi- nis|Ma- ri\- * * * *|* ae|ex se- mi-|
 g4 f6 e2 e4 | z16 | z4 e4 e6 d2 | e4 (f6 e2 d2 c2 | d6) d2 e8 | z8 c8- | c8 c8 | z16 | %32
w: ne A- bra- hae,||ex se- mi-|ne A\- * * *|* bra- hae,|or\-|* ta,||
 (c6 d2 e2 c2 f4-) | (f2 ed c4) d8 | (A6 B2 c2 A2) d4 | c4 f4 f4 d4 | f4 B4 z4 d4- | %37
w: or\- * * * *|* * * * ta,|or\- * * * *|ta de tri- bu|Ju- da, cla\-|
 d2 d2 d4 f4 f4 | e8 d8 | z8 g8 | d8 _e8 | d4 g6 ^f2 f4 | g8 a8 | z4 d6 ^c2 c4 | (d6 e2 f4) e4 | %45
w: * ra ex stir- pe|Da- vid,|cu-|ius vi-|ta in- cly- ta|cun- ctas,|in- cly- ta|cun\- * * ctas,|
 a8 e8 | f8 e8 | z4 d6 ^c2 c4 | (d2 =cB A4) A8- | A8 z4 a4 | (d2 e2 f2 g2 a8-) | a4 d8 ^c4 | %52
w: cu- ius|vi- ta|in- cly- ta|cun\- * * * ctas|* il-|lu\- * * * *|* strat Ec-|
 d6 d2 A8 | z4 a8 (a4- | a2 gf e4) f8- | f4 e4 d8- | d8 d8 | ^c16 |] %58
w: cle- si- as,|il- lu\-|* * * * strat|* Ec- cle\-|* si-|as.|
V:4
 z16 | z16 | z16 | z16 | z16 | z16 | A,16 | F,12 F,4 |[M:4/2] F,8 z4 F,4 | A,4 C8 B,4 | %10
w: ||||||Na-|ti- vi-|tas glo-|ri- o- sae|
 A,6 A,2 G,4 F,4 | E,8 D,8 | z8 z4 G,4 | A,4 C8 B,4 | A,6 A,2 G,8- | G,4 D,4 A,8 | D,8 D8- | %17
w: Vir- gi- nis Ma-|ri- ae,|glo-|ri- o- sae|Vir- gi- nis|* Ma- ri-|ae, na\-|
 D8 B,8- | B,4 B,4 B,8 | z4 B,,4 D,4 F,4- | F,4 E,4 D,6 D,2 | C,4 F,4 A,8 | G,8 z4 C4 | %23
w: * ti\-|* vi- tas|glo- ri- o\-|* sae Vir- gi-|nis Ma- ri-|ae ex|
 C6 G,2 C4 B,4- | B,4 A,4 C8 | z16 | C8 C6 G,2 | C4 F,8 A,4 | G,8 z8 | z8 (C,6 D,2 | %30
w: se- mi- ne A\-|* bra- hae,||ex se- mi-|ne A- bra-|hae,|or\- *|
 E,2 C,2 F,4) C,4 C4 | C4 A,4 C8 | F,8 z4 F,4- | (F,2 G,2 A,2 F,2 B,8) | F,4 F,4 F,4 D,4 | %35
w: * * * ta de|tri- bu Ju-|da, or\-||ta de tri- bu|
 F,8 B,,8 | B,6 B,2 B,8 | G,8 F,4 (A,4- | A,2 B,2 C6 =B,A, B,4) | (C8 G,8) | z16 | G,8 D,8 | %42
w: Ju- da,|cla- ra ex|stir- pe Da\-||vid, *||cu- ius|
 _E,8 D,8 | D8 A,8 | B,8 A,8 | z4 D6 ^C2 C4 | D8 A,4 A,4 | (D,2 E,2 F,2 G,2 A,8) | D,12 ^C,4 | %49
w: vi- ta,|cu- ius|vi- ta|in- cly- ta|cun- ctas il-|lu\- * * * *|strat Ec-|
 D,6 D,2 A,,8 | z8 z4 A,4 | (D,2 E,2 F,2 G,2 A,8) | D,8 z4 A,4 | (D,2 E,2 F,2 G,2 A,8- | %54
w: cle- si- as,|il-|lu\- * * * *|strat, il-|lu\- * * * *|
 A,8) D,8- | D,4 ^C,4 D,8- | D,8 D,8 | A,,16 |] %58
w: * strat|* Ec- cle\-|* si-|as.|

